!!!COM: Scriabin, Alexander
!!!OTL@@FR: Prélude en si majeur
!!!OTL@@EN: Prelude in B Major
!!!OPR@@FR: 2 Préludes
!!!OPR@@EN: 2 Preludes
!!!OPS: 27
!!!ONM: 2
!!!ODT: 1901
!!!AGN: Prelude
**kern	**kern	**dynam
*staff2	*staff1	*staff1/2
*Ipiano	*Ipiano	*
*clefF4	*clefG2	*
*k[f#c#g#d#a#]	*k[f#c#g#d#a#]	*
*B:	*B:	*
*M3/4	*M3/4	*
=1	=1	=1
*	*^	*
*	*	*^	*
4.D#	2.B	2.f#	4raa	.
.	.	.	4.a#	.
8C##X	.	.	.	.
8EL	.	.	.	.
8D#J	.	.	8a#	.
=2	=2	=2	=2	=2
8D#L	4B	4e	4a#	.
8C#J	.	.	.	.
8BL	[2e	[2g#	8g#L	.
8A#J	.	.	8a#	.
[4G#	.	.	8cc#	.
.	.	.	8bJ	.
=3	=3	=3	=3	=3
8G#L]	4e]	4g#]	4dd#	.
8G#	.	.	.	.
8e	2g#	2b	8cc#L	.
8d#	.	.	8dd#	.
8c#	.	.	12ff#	.
.	.	.	12.ee	.
8G#J	.	.	.	.
.	.	.	24bJk	.
=4	=4	=4	=4	=4
8BL	4e	4g#	8dd#L	.
8A#	.	.	8cc#	.
8G#	4c#	4e	8b	.
8F#J	.	.	8a#	.
[4E	8BL	4c#	8g#	.
.	8A#J	.	8f#J	.
=5	=5	=5	=5	=5
4E]	2.B	2.f#	4raa	.
8D#L	.	.	4.a#	.
8C##X	.	.	.	.
8E	.	.	.	.
8D#J	.	.	8a#	.
=6	=6	=6	=6	=6
8D#L	4B	4e	4a#	.
8C#	.	.	.	.
8B	[2e	[2g#	8g#L	.
8A#J	.	.	8a#	.
[4G#	.	.	8cc#	.
.	.	.	8bJ	.
=7	=7	=7	=7	=7
8G#L]	4e]	4g#]	4dd#	.
8G#	.	.	.	.
8e	4g#	4b	8cc#L	.
8d#J	.	.	8dd#	.
[4c#	4f##X	4a#	8ff#X	.
.	.	.	8eeJ	.
*	*	*v	*v	*
=8	=8	=8	=8
8c#L]	2g#	2dd#	.
8B	.	.	.
8B	.	.	.
8A#	.	.	.
8A#	4d#	4b	.
8G#J	.	.	.
=9	=9	=9	=9
*	*	*^	*
8G#L	2.c##X	2.e#X	2a#	.
8A#	.	.	.	.
8G#	.	.	.	.
8AA#	.	.	.	.
8.G#	.	.	4a#	.
16G#Jk	.	.	.	.
=10	=10	=10	=10	=10
12G#L	2.c#X	2.en	2.a#	.
12A#	.	.	.	.
12G#J	.	.	.	.
8F##XL	.	.	.	.
8F#X	.	.	.	.
8G#	.	.	.	.
8F##XJ	.	.	.	.
=11	=11	=11	=11	=11
8F#XL	2.B#X	2.d#	2a#	.
8G#	.	.	.	.
8F#	.	.	.	.
8GG#	.	.	.	.
8.F#	.	.	4a#	.
16F#Jk	.	.	.	.
=12	=12	=12	=12	=12
12F#L	2.Bn	[2.dn	2a#	.
12G#	.	.	.	.
12F#J	.	.	.	.
8E#XL	.	.	.	.
8En	.	.	.	.
8F#	.	.	4g#	.
8E#XJ	.	.	.	.
=13	=13	=13	=13	=13
8EnL	2A#	4d]	2f#	.
8F#	.	.	.	.
8E	.	4d#X	.	.
8FF#	.	.	.	.
8.E	4A#	4c#	4f#	.
16EJk	.	.	.	.
=14	=14	=14	=14	=14
8EL	2.B	2.f#	2f#	.
8F#	.	.	.	.
8E	.	.	.	.
8FF#	.	.	.	.
8.D#	.	.	4g#	.
16D#Jk	.	.	.	.
=15	=15	=15	=15	=15
8D#L	2B	2.e	2g#	.
8E	.	.	.	.
8D#	.	.	.	.
8FF#	.	.	.	.
8.C#	4A#	.	4a#	.
16C#Jk	.	.	.	.
=16	=16	=16	=16	=16
8C#L	2.F#	2.d#	2a#	.
8D#	.	.	.	.
8C#	.	.	.	.
8FF#	.	.	.	.
8BB	.	.	[4a#	.
8AA#J	.	.	.	.
=17	=17	=17	=17	=17
4.GG#	4G#	2d#	8a#L]	.
.	.	.	8b	.
.	4B	.	8.g#	.
8GG#	.	.	.	.
.	.	.	16d#Jk	.
12GG#L	4d#	[4d#	[4f#	.
12FF##X	.	.	.	.
12GG#J	.	.	.	.
=18	=18	=18	=18	=18
4.C#	4B	8d#L]	8f#L]	.
.	.	8eJ	8g#J	.
.	2G#	2B	12f#L	.
.	.	.	12.e	.
8C#	.	.	.	.
.	.	.	24BJk	.
*	*clefF4	*	*	*
12C#L	.	.	[4d#	.
12D#	.	.	.	.
12C#J	.	.	.	.
=19	=19	=19	=19	=19
[2.FF#	2.E	2.G#	8d#L]	.
.	.	.	8e	.
.	.	.	12d#	.
.	.	.	12.c#	.
.	.	.	24G#Jk	.
.	.	.	[4B	.
=20	=20	=20	=20	=20
2.BBB 2.FF#] 2.BB	4E	4F#	8.BL]	.
.	.	.	16c#Jk	.
.	2D#	2F# 2B	2d#	.
*	*	*v	*v	*
*	*v	*v	*
==	==	==
*-	*-	*-
!!!system-decoration: {(*)}
!!!ENC: Bryan Jacob Bell
!!!END: November 2021 to April 2022
!!!PED: Günter Philipp
!!!PTL: Ausgewählte Klavierwerke (Edition Peters)
